X: 5
T: The Humours Of Westmeath
R: slip jig
M: 9/8
L: 1/8
K: Dmaj
|: {A}d3 dAG FED | {A}d2 d dAF G2 E | ABc dAG FGA | =cBc E2 F G2 E :|
d2 g fdf ece | d2 g fdf g2 e | d2 g fdf ece | =cBc E2 F G2 E |
d2 g fdf ece | d2 g fdf g2 e | afd gec d2 B | =cBc E2 F G2 E |]


Tune 428	Setting 428

